X:18
T:Derry
Z: id:dc-hornpipe-17
M:C|
L:1/8
K:D Major
AG|F2Ad fdAF|G2Bd gdBG|F2Ad fdAF|E2Ac ecAG|!
F2Ad fdAF|G2Bd gbag|fafd egec|d2f2 d2:|!
fg|a2fd Adfa|g2ec Aceg|a2fd Adgf|(3efe (3dcB A2fg|!
a2fd Adfa|gfef gbag|fafd egec|d2f2 d2:|!
fg|a^gab afdf|gfga gece|a^gab afdf|(3efe (3dcB A2fg|!
a^gab afdf|gfef gbag|fafd egec|d2f2 d2:|!

